IMPlatforms/IMProcessingiOS/IMProcessingiOS/Luts/A25_B&W.cube
#Generated by Picture Instruments - Look Creator
TITLE "A25 B&W"
LUT_3D_SIZE 5
0 0 0
0.0313725 0.0352941 0.0431373
0.137255 0.141176 0.141176
0.345098 0.34902 0.356863
0.615686 0.619608 0.627451
0.0784314 0.0823529 0.0862745
0.133333 0.137255 0.145098
0.239216 0.243137 0.243137
0.423529 0.427451 0.427451
0.65098 0.654902 0.654902
0.290196 0.294118 0.298039
0.329412 0.333333 0.341176
0.411765 0.415686 0.423529
0.556863 0.560784 0.564706
0.717647 0.721569 0.729412
0.607843 0.611765 0.615686
0.615686 0.619608 0.627451
0.647059 0.65098 0.658824
0.72549 0.729412 0.737255
0.815686 0.819608 0.823529
0.843137 0.847059 0.85098
0.843137 0.847059 0.847059
0.854902 0.858824 0.862745
0.87451 0.878431 0.886275
0.913725 0.917647 0.92549
0.0627451 0.0666667 0.0705882
0.12549 0.129412 0.133333
0.247059 0.25098 0.25098
0.435294 0.443137 0.439216
0.666667 0.670588 0.67451
0.188235 0.192157 0.192157
0.247059 0.25098 0.258824
0.345098 0.34902 0.34902
0.509804 0.513725 0.517647
0.698039 0.701961 0.709804
0.392157 0.396078 0.403922
0.439216 0.443137 0.447059
0.505882 0.509804 0.509804
0.619608 0.623529 0.631373
0.752941 0.756863 0.756863
0.643137 0.647059 0.647059
0.658824 0.666667 0.662745
0.690196 0.694118 0.694118
0.756863 0.764706 0.756863
0.839216 0.843137 0.85098
0.85098 0.854902 0.862745
0.854902 0.858824 0.862745
0.862745 0.866667 0.866667
0.886275 0.894118 0.886275
0.92549 0.929412 0.933333
0.231373 0.235294 0.235294
0.305882 0.309804 0.309804
0.407843 0.411765 0.415686
0.564706 0.568627 0.576471
0.729412 0.733333 0.741176
0.364706 0.368627 0.364706
0.411765 0.419608 0.415686
0.498039 0.505882 0.501961
0.619608 0.623529 0.631373
0.752941 0.756863 0.756863
0.537255 0.541176 0.541176
0.568627 0.572549 0.576471
0.619608 0.623529 0.631373
0.705882 0.709804 0.717647
0.803922 0.807843 0.807843
0.717647 0.721569 0.729412
0.737255 0.741176 0.745098
0.764706 0.772549 0.768627
0.815686 0.823529 0.819608
0.878431 0.886275 0.882353
0.878431 0.886275 0.882353
0.886275 0.890196 0.894118
0.898039 0.901961 0.901961
0.917647 0.92549 0.921569
0.94902 0.952941 0.960784
0.47451 0.478431 0.482353
0.529412 0.533333 0.541176
0.596078 0.6 0.6
0.698039 0.701961 0.701961
0.811765 0.815686 0.815686
0.572549 0.580392 0.576471
0.603922 0.607843 0.611765
0.662745 0.666667 0.67451
0.741176 0.745098 0.745098
0.835294 0.839216 0.847059
0.698039 0.701961 0.701961
0.717647 0.721569 0.721569
0.752941 0.756863 0.764706
0.807843 0.815686 0.811765
0.878431 0.882353 0.890196
0.827451 0.831373 0.839216
0.835294 0.839216 0.843137
0.854902 0.862745 0.858824
0.890196 0.894118 0.898039
0.929412 0.933333 0.933333
0.929412 0.933333 0.937255
0.933333 0.937255 0.945098
0.941176 0.945098 0.94902
0.952941 0.960784 0.956863
0.968627 0.972549 0.976471
0.705882 0.709804 0.709804
0.741176 0.745098 0.752941
0.776471 0.780392 0.780392
0.831373 0.835294 0.843137
0.898039 0.901961 0.909804
0.764706 0.768627 0.768627
0.776471 0.784314 0.780392
0.811765 0.815686 0.815686
0.858824 0.862745 0.862745
0.913725 0.917647 0.921569
0.839216 0.847059 0.843137
0.85098 0.854902 0.854902
0.870588 0.878431 0.870588
0.901961 0.905882 0.909804
0.937255 0.941176 0.941176
0.921569 0.92549 0.933333
0.92549 0.929412 0.933333
0.937255 0.941176 0.94902
0.94902 0.956863 0.952941
0.964706 0.968627 0.972549
0.964706 0.972549 0.972549
0.964706 0.968627 0.972549
0.968627 0.972549 0.976471
0.976471 0.980392 0.984314
0.984314 0.988235 0.992157
