IMPlatforms/IMProcessingiOS/IMProcessingiOS/Luts/A25_B&W.cube
#Generated by Picture Instruments - Look Creator
TITLE "A25 B&W"
LUT_3D_SIZE 9
0 0 0
0.0156863 0.0235294 0.0196078
0.0313725 0.0352941 0.0431373
0.0627451 0.0666667 0.0745098
0.137255 0.141176 0.141176
0.227451 0.231373 0.235294
0.345098 0.34902 0.356863
0.486275 0.490196 0.490196
0.615686 0.619608 0.627451
0.027451 0.0313725 0.0313725
0.0509804 0.0588235 0.054902
0.0745098 0.0784314 0.0823529
0.117647 0.12549 0.117647
0.184314 0.188235 0.196078
0.266667 0.270588 0.278431
0.376471 0.384314 0.380392
0.513725 0.517647 0.52549
0.631373 0.639216 0.631373
0.0784314 0.0823529 0.0862745
0.109804 0.109804 0.109804
0.133333 0.137255 0.145098
0.180392 0.184314 0.188235
0.239216 0.243137 0.243137
0.317647 0.321569 0.32549
0.423529 0.427451 0.427451
0.545098 0.552941 0.54902
0.65098 0.654902 0.654902
0.172549 0.176471 0.176471
0.192157 0.196078 0.196078
0.223529 0.227451 0.227451
0.262745 0.270588 0.266667
0.32549 0.32549 0.32549
0.392157 0.396078 0.403922
0.482353 0.486275 0.490196
0.588235 0.592157 0.596078
0.678431 0.682353 0.682353
0.290196 0.294118 0.298039
0.305882 0.309804 0.313725
0.329412 0.333333 0.341176
0.368627 0.368627 0.368627
0.411765 0.415686 0.423529
0.47451 0.482353 0.478431
0.556863 0.560784 0.564706
0.635294 0.639216 0.639216
0.717647 0.721569 0.729412
0.431373 0.435294 0.435294
0.443137 0.45098 0.447059
0.462745 0.470588 0.466667
0.494118 0.498039 0.505882
0.529412 0.537255 0.533333
0.576471 0.580392 0.588235
0.635294 0.643137 0.639216
0.705882 0.709804 0.717647
0.764706 0.768627 0.768627
0.607843 0.611765 0.615686
0.607843 0.615686 0.611765
0.615686 0.619608 0.627451
0.631373 0.635294 0.639216
0.647059 0.65098 0.658824
0.682353 0.686275 0.686275
0.72549 0.729412 0.737255
0.772549 0.776471 0.780392
0.815686 0.819608 0.823529
0.745098 0.74902 0.752941
0.745098 0.74902 0.756863
0.74902 0.752941 0.756863
0.752941 0.756863 0.764706
0.760784 0.764706 0.768627
0.772549 0.780392 0.772549
0.803922 0.807843 0.815686
0.835294 0.839216 0.839216
0.870588 0.87451 0.882353
0.843137 0.847059 0.85098
0.843137 0.847059 0.854902
0.843137 0.847059 0.847059
0.847059 0.85098 0.858824
0.854902 0.858824 0.862745
0.862745 0.866667 0.87451
0.87451 0.878431 0.886275
0.894118 0.898039 0.898039
0.913725 0.917647 0.92549
0.0235294 0.027451 0.0352941
0.054902 0.0588235 0.0666667
0.0784314 0.0823529 0.0901961
0.117647 0.121569 0.12549
0.196078 0.196078 0.196078
0.27451 0.278431 0.278431
0.384314 0.392157 0.388235
0.521569 0.52549 0.529412
0.639216 0.643137 0.647059
0.0784314 0.0823529 0.0862745
0.101961 0.109804 0.105882
0.12549 0.129412 0.129412
0.172549 0.176471 0.176471
0.235294 0.239216 0.247059
0.313725 0.317647 0.32549
0.415686 0.423529 0.419608
0.545098 0.54902 0.556863
0.654902 0.658824 0.666667
0.129412 0.133333 0.141176
0.156863 0.160784 0.168627
0.188235 0.192157 0.2
0.231373 0.235294 0.235294
0.290196 0.294118 0.301961
0.360784 0.368627 0.364706
0.462745 0.466667 0.47451
0.576471 0.580392 0.584314
0.670588 0.678431 0.67451
0.223529 0.227451 0.235294
0.25098 0.254902 0.254902
0.27451 0.278431 0.286275
0.313725 0.317647 0.321569
0.364706 0.368627 0.368627
0.431373 0.439216 0.431373
0.521569 0.52549 0.533333
0.615686 0.619608 0.627451
0.701961 0.705882 0.713725
0.333333 0.337255 0.345098
0.34902 0.356863 0.352941
0.376471 0.380392 0.388235
0.411765 0.419608 0.415686
0.454902 0.462745 0.458824
0.513725 0.521569 0.517647
0.584314 0.588235 0.588235
0.658824 0.662745 0.662745
0.733333 0.741176 0.733333
0.470588 0.478431 0.470588
0.486275 0.490196 0.498039
0.501961 0.509804 0.505882
0.529412 0.533333 0.541176
0.560784 0.568627 0.564706
0.603922 0.611765 0.607843
0.662745 0.666667 0.670588
0.721569 0.72549 0.72549
0.776471 0.780392 0.780392
0.619608 0.623529 0.627451
0.627451 0.631373 0.635294
0.635294 0.639216 0.643137
0.65098 0.654902 0.658824
0.666667 0.670588 0.67451
0.698039 0.701961 0.701961
0.741176 0.745098 0.74902
0.784314 0.788235 0.792157
0.823529 0.831373 0.827451
0.74902 0.756863 0.752941
0.752941 0.756863 0.764706
0.752941 0.760784 0.756863
0.756863 0.760784 0.760784
0.768627 0.772549 0.780392
0.788235 0.792157 0.8
0.815686 0.823529 0.819608
0.847059 0.85098 0.858824
0.87451 0.882353 0.878431
0.847059 0.85098 0.858824
0.847059 0.85098 0.858824
0.847059 0.854902 0.85098
0.85098 0.854902 0.862745
0.858824 0.862745 0.870588
0.866667 0.870588 0.878431
0.878431 0.882353 0.890196
0.901961 0.905882 0.913725
0.917647 0.921569 0.929412
0.0627451 0.0666667 0.0705882
0.0980392 0.101961 0.101961
0.12549 0.129412 0.133333
0.176471 0.184314 0.180392
0.247059 0.25098 0.25098
0.329412 0.333333 0.333333
0.435294 0.443137 0.439216
0.556863 0.560784 0.560784
0.666667 0.670588 0.67451
0.12549 0.129412 0.129412
0.152941 0.156863 0.156863
0.184314 0.188235 0.188235
0.231373 0.235294 0.243137
0.290196 0.294118 0.301961
0.364706 0.372549 0.368627
0.466667 0.47451 0.470588
0.580392 0.584314 0.592157
0.678431 0.682353 0.686275
0.188235 0.192157 0.192157
0.215686 0.219608 0.219608
0.247059 0.25098 0.258824
0.290196 0.294118 0.301961
0.345098 0.34902 0.34902
0.415686 0.419608 0.419608
0.509804 0.513725 0.517647
0.607843 0.615686 0.611765
0.698039 0.701961 0.709804
0.278431 0.282353 0.282353
0.301961 0.305882 0.309804
0.329412 0.337255 0.333333
0.368627 0.372549 0.372549
0.419608 0.423529 0.423529
0.482353 0.486275 0.486275
0.560784 0.568627 0.564706
0.647059 0.65098 0.658824
0.721569 0.72549 0.733333
0.392157 0.396078 0.403922
0.411765 0.419608 0.411765
0.439216 0.443137 0.447059
0.470588 0.47451 0.482353
0.505882 0.509804 0.509804
0.556863 0.560784 0.560784
0.619608 0.623529 0.631373
0.686275 0.690196 0.690196
0.752941 0.756863 0.756863
0.517647 0.521569 0.52549
0.52549 0.529412 0.529412
0.545098 0.54902 0.552941
0.568627 0.572549 0.572549
0.6 0.603922 0.603922
0.639216 0.643137 0.65098
0.686275 0.690196 0.698039
0.741176 0.74902 0.745098
0.792157 0.796078 0.796078
0.643137 0.647059 0.647059
0.65098 0.654902 0.654902
0.658824 0.666667 0.662745
0.67451 0.678431 0.686275
0.690196 0.694118 0.694118
0.72549 0.729412 0.737255
0.756863 0.764706 0.756863
0.8 0.803922 0.811765
0.839216 0.843137 0.85098
0.760784 0.764706 0.772549
0.764706 0.768627 0.776471
0.768627 0.776471 0.772549
0.772549 0.780392 0.776471
0.784314 0.792157 0.784314
0.803922 0.807843 0.815686
0.831373 0.835294 0.839216
0.858824 0.862745 0.870588
0.886275 0.890196 0.898039
0.85098 0.854902 0.862745
0.85098 0.854902 0.854902
0.854902 0.858824 0.862745
0.858824 0.862745 0.870588
0.862745 0.866667 0.866667
0.87451 0.878431 0.886275
0.886275 0.894118 0.886275
0.909804 0.913725 0.921569
0.92549 0.929412 0.933333
0.129412 0.133333 0.141176
0.164706 0.168627 0.176471
0.203922 0.207843 0.207843
0.258824 0.262745 0.270588
0.317647 0.321569 0.321569
0.4 0.403922 0.411765
0.498039 0.501961 0.509804
0.603922 0.607843 0.611765
0.694118 0.698039 0.698039
0.203922 0.203922 0.203922
0.227451 0.231373 0.239216
0.262745 0.266667 0.270588
0.305882 0.309804 0.313725
0.364706 0.368627 0.368627
0.435294 0.443137 0.439216
0.52549 0.533333 0.529412
0.623529 0.627451 0.627451
0.705882 0.713725 0.709804
0.266667 0.27451 0.270588
0.290196 0.294118 0.294118
0.321569 0.32549 0.329412
0.364706 0.368627 0.372549
0.419608 0.423529 0.427451
0.486275 0.490196 0.498039
0.564706 0.568627 0.572549
0.647059 0.654902 0.647059
0.72549 0.729412 0.737255
0.356863 0.364706 0.360784
0.380392 0.388235 0.384314
0.411765 0.415686 0.411765
0.447059 0.45098 0.458824
0.490196 0.494118 0.498039
0.545098 0.54902 0.556863
0.607843 0.615686 0.611765
0.678431 0.682353 0.682353
0.74902 0.752941 0.760784
0.466667 0.470588 0.478431
0.478431 0.486275 0.482353
0.501961 0.505882 0.513725
0.529412 0.533333 0.533333
0.564706 0.568627 0.572549
0.603922 0.607843 0.607843
0.658824 0.662745 0.670588
0.721569 0.72549 0.733333
0.776471 0.780392 0.780392
0.568627 0.572549 0.572549
0.580392 0.584314 0.588235
0.596078 0.6 0.603922
0.619608 0.623529 0.627451
0.643137 0.65098 0.647059
0.67451 0.682353 0.678431
0.717647 0.72549 0.721569
0.768627 0.772549 0.776471
0.815686 0.819608 0.827451
0.67451 0.682353 0.678431
0.682353 0.686275 0.694118
0.694118 0.698039 0.701961
0.705882 0.709804 0.717647
0.72549 0.733333 0.729412
0.752941 0.756863 0.760784
0.784314 0.788235 0.788235
0.823529 0.827451 0.835294
0.854902 0.862745 0.858824
0.780392 0.784314 0.792157
0.784314 0.792157 0.784314
0.792157 0.796078 0.803922
0.8 0.803922 0.807843
0.807843 0.815686 0.811765
0.823529 0.831373 0.827451
0.847059 0.854902 0.847059
0.87451 0.882353 0.878431
0.901961 0.905882 0.913725
0.858824 0.862745 0.862745
0.862745 0.866667 0.870588
0.866667 0.870588 0.878431
0.870588 0.87451 0.878431
0.878431 0.882353 0.890196
0.890196 0.894118 0.898039
0.901961 0.905882 0.913725
0.917647 0.921569 0.921569
0.933333 0.937255 0.941176
0.231373 0.235294 0.235294
0.262745 0.266667 0.266667
0.305882 0.309804 0.309804
0.34902 0.352941 0.360784
0.407843 0.411765 0.415686
0.482353 0.486275 0.490196
0.564706 0.568627 0.576471
0.65098 0.658824 0.654902
0.729412 0.733333 0.741176
0.298039 0.301961 0.301961
0.317647 0.321569 0.321569
0.352941 0.356863 0.356863
0.396078 0.4 0.407843
0.45098 0.454902 0.462745
0.513725 0.517647 0.517647
0.588235 0.592157 0.6
0.666667 0.67451 0.670588
0.737255 0.745098 0.741176
0.364706 0.368627 0.364706
0.388235 0.392157 0.4
0.411765 0.419608 0.415686
0.454902 0.458824 0.458824
0.498039 0.505882 0.501961
0.552941 0.560784 0.556863
0.619608 0.623529 0.631373
0.690196 0.694118 0.701961
0.752941 0.756863 0.756863
0.45098 0.458824 0.45098
0.470588 0.47451 0.47451
0.490196 0.498039 0.494118
0.521569 0.529412 0.52549
0.556863 0.564706 0.560784
0.603922 0.607843 0.615686
0.658824 0.662745 0.662745
0.721569 0.72549 0.733333
0.776471 0.780392 0.788235
0.537255 0.541176 0.541176
0.54902 0.556863 0.54902
0.568627 0.572549 0.576471
0.592157 0.6 0.596078
0.619608 0.623529 0.631373
0.658824 0.662745 0.670588
0.705882 0.709804 0.717647
0.756863 0.760784 0.764706
0.803922 0.807843 0.807843
0.631373 0.639216 0.635294
0.639216 0.647059 0.643137
0.65098 0.654902 0.662745
0.666667 0.67451 0.670588
0.690196 0.698039 0.690196
0.721569 0.72549 0.733333
0.756863 0.760784 0.764706
0.8 0.803922 0.811765
0.843137 0.847059 0.854902
0.717647 0.721569 0.729412
0.72549 0.729412 0.737255
0.737255 0.741176 0.745098
0.74902 0.752941 0.760784
0.764706 0.772549 0.768627
0.788235 0.792157 0.792157
0.815686 0.823529 0.819608
0.85098 0.854902 0.858824
0.878431 0.886275 0.882353
0.807843 0.811765 0.819608
0.811765 0.819608 0.811765
0.819608 0.823529 0.831373
0.827451 0.831373 0.839216
0.839216 0.843137 0.847059
0.854902 0.858824 0.866667
0.870588 0.878431 0.87451
0.898039 0.901961 0.909804
0.917647 0.921569 0.921569
0.878431 0.886275 0.882353
0.882353 0.886275 0.890196
0.886275 0.890196 0.894118
0.890196 0.894118 0.901961
0.898039 0.901961 0.901961
0.905882 0.909804 0.909804
0.917647 0.92549 0.921569
0.933333 0.937255 0.945098
0.94902 0.952941 0.960784
0.345098 0.34902 0.352941
0.380392 0.388235 0.380392
0.423529 0.427451 0.435294
0.45098 0.458824 0.454902
0.501961 0.505882 0.505882
0.560784 0.568627 0.564706
0.631373 0.635294 0.643137
0.701961 0.705882 0.713725
0.768627 0.772549 0.772549
0.403922 0.407843 0.407843
0.427451 0.431373 0.435294
0.454902 0.458824 0.462745
0.494118 0.498039 0.501961
0.537255 0.541176 0.541176
0.588235 0.596078 0.588235
0.65098 0.654902 0.654902
0.717647 0.721569 0.729412
0.780392 0.784314 0.792157
0.466667 0.470588 0.470588
0.486275 0.490196 0.498039
0.505882 0.513725 0.509804
0.541176 0.545098 0.552941
0.576471 0.580392 0.580392
0.623529 0.627451 0.635294
0.678431 0.686275 0.682353
0.737255 0.741176 0.741176
0.792157 0.8 0.796078
0.545098 0.54902 0.552941
0.552941 0.560784 0.552941
0.576471 0.580392 0.588235
0.6 0.603922 0.611765
0.631373 0.635294 0.643137
0.666667 0.67451 0.670588
0.713725 0.717647 0.721569
0.764706 0.772549 0.768627
0.811765 0.815686 0.815686
0.615686 0.619608 0.619608
0.627451 0.631373 0.635294
0.643137 0.647059 0.654902
0.658824 0.662745 0.662745
0.686275 0.690196 0.694118
0.717647 0.721569 0.72549
0.752941 0.760784 0.752941
0.8 0.803922 0.807843
0.839216 0.843137 0.843137
0.694118 0.698039 0.705882
0.698039 0.701961 0.701961
0.709804 0.717647 0.713725
0.72549 0.729412 0.729412
0.74902 0.752941 0.756863
0.768627 0.776471 0.772549
0.8 0.807843 0.803922
0.839216 0.843137 0.85098
0.870588 0.87451 0.882353
0.772549 0.776471 0.784314
0.780392 0.784314 0.792157
0.788235 0.792157 0.8
0.796078 0.8 0.807843
0.807843 0.811765 0.811765
0.831373 0.835294 0.843137
0.85098 0.854902 0.854902
0.878431 0.886275 0.878431
0.901961 0.905882 0.905882
0.847059 0.85098 0.854902
0.847059 0.854902 0.85098
0.854902 0.858824 0.862745
0.862745 0.866667 0.87451
0.870588 0.878431 0.870588
0.886275 0.890196 0.894118
0.901961 0.905882 0.909804
0.921569 0.92549 0.933333
0.937255 0.941176 0.945098
0.901961 0.905882 0.913725
0.901961 0.905882 0.905882
0.905882 0.909804 0.909804
0.913725 0.917647 0.92549
0.921569 0.92549 0.933333
0.929412 0.933333 0.941176
0.941176 0.945098 0.952941
0.94902 0.952941 0.956863
0.956863 0.960784 0.964706
0.47451 0.478431 0.482353
0.501961 0.509804 0.505882
0.529412 0.533333 0.541176
0.556863 0.560784 0.560784
0.596078 0.6 0.6
0.647059 0.65098 0.658824
0.698039 0.701961 0.701961
0.756863 0.760784 0.760784
0.811765 0.815686 0.815686
0.521569 0.52549 0.533333
0.533333 0.537255 0.545098
0.552941 0.556863 0.564706
0.588235 0.596078 0.592157
0.627451 0.631373 0.635294
0.666667 0.67451 0.666667
0.717647 0.72549 0.717647
0.772549 0.776471 0.780392
0.819608 0.827451 0.823529
0.572549 0.580392 0.576471
0.584314 0.588235 0.588235
0.603922 0.607843 0.611765
0.631373 0.639216 0.635294
0.662745 0.666667 0.67451
0.701961 0.705882 0.709804
0.741176 0.745098 0.745098
0.792157 0.796078 0.8
0.835294 0.839216 0.847059
0.635294 0.639216 0.643137
0.647059 0.65098 0.654902
0.662745 0.666667 0.67451
0.682353 0.686275 0.690196
0.705882 0.709804 0.717647
0.737255 0.741176 0.74902
0.772549 0.776471 0.784314
0.815686 0.819608 0.823529
0.854902 0.858824 0.862745
0.698039 0.701961 0.701961
0.705882 0.713725 0.709804
0.717647 0.721569 0.721569
0.733333 0.741176 0.733333
0.752941 0.756863 0.764706
0.776471 0.780392 0.780392
0.807843 0.815686 0.811765
0.843137 0.847059 0.847059
0.878431 0.882353 0.890196
0.764706 0.768627 0.776471
0.768627 0.772549 0.772549
0.776471 0.780392 0.780392
0.788235 0.792157 0.8
0.803922 0.807843 0.815686
0.823529 0.827451 0.831373
0.847059 0.854902 0.847059
0.878431 0.882353 0.886275
0.901961 0.905882 0.905882
0.827451 0.831373 0.839216
0.831373 0.835294 0.843137
0.835294 0.839216 0.843137
0.843137 0.847059 0.85098
0.854902 0.862745 0.858824
0.87451 0.878431 0.886275
0.890196 0.894118 0.898039
0.913725 0.917647 0.921569
0.929412 0.933333 0.933333
0.886275 0.890196 0.898039
0.886275 0.894118 0.890196
0.894118 0.898039 0.901961
0.901961 0.905882 0.913725
0.905882 0.913725 0.909804
0.917647 0.921569 0.929412
0.929412 0.933333 0.933333
0.945098 0.94902 0.952941
0.952941 0.956863 0.964706
0.929412 0.933333 0.937255
0.929412 0.933333 0.933333
0.933333 0.937255 0.945098
0.937255 0.941176 0.94902
0.941176 0.945098 0.94902
0.94902 0.952941 0.960784
0.952941 0.960784 0.956863
0.960784 0.964706 0.964706
0.968627 0.972549 0.976471
0.6 0.607843 0.603922
0.619608 0.627451 0.623529
0.643137 0.647059 0.65098
0.666667 0.670588 0.670588
0.694118 0.698039 0.701961
0.733333 0.737255 0.745098
0.772549 0.776471 0.780392
0.815686 0.823529 0.819608
0.858824 0.862745 0.870588
0.627451 0.631373 0.635294
0.635294 0.639216 0.643137
0.662745 0.666667 0.670588
0.690196 0.694118 0.701961
0.717647 0.721569 0.729412
0.74902 0.752941 0.760784
0.784314 0.788235 0.788235
0.831373 0.835294 0.843137
0.866667 0.870588 0.878431
0.678431 0.682353 0.682353
0.690196 0.694118 0.701961
0.701961 0.705882 0.709804
0.717647 0.721569 0.721569
0.745098 0.74902 0.752941
0.772549 0.776471 0.776471
0.803922 0.807843 0.811765
0.847059 0.85098 0.858824
0.878431 0.882353 0.886275
0.72549 0.733333 0.72549
0.733333 0.741176 0.737255
0.745098 0.752941 0.74902
0.760784 0.764706 0.772549
0.780392 0.784314 0.792157
0.803922 0.807843 0.815686
0.831373 0.835294 0.835294
0.866667 0.870588 0.878431
0.894118 0.901961 0.894118
0.776471 0.780392 0.784314
0.780392 0.788235 0.784314
0.792157 0.796078 0.8
0.803922 0.807843 0.811765
0.815686 0.823529 0.819608
0.839216 0.843137 0.847059
0.858824 0.862745 0.862745
0.890196 0.894118 0.901961
0.913725 0.917647 0.92549
0.827451 0.835294 0.831373
0.831373 0.835294 0.835294
0.839216 0.843137 0.85098
0.847059 0.85098 0.858824
0.858824 0.862745 0.862745
0.87451 0.882353 0.878431
0.894118 0.898039 0.905882
0.917647 0.921569 0.92549
0.933333 0.937255 0.945098
0.878431 0.882353 0.890196
0.882353 0.886275 0.894118
0.886275 0.890196 0.898039
0.890196 0.894118 0.894118
0.901961 0.905882 0.913725
0.913725 0.917647 0.921569
0.92549 0.929412 0.929412
0.941176 0.945098 0.952941
0.94902 0.956863 0.956863
0.92549 0.929412 0.937255
0.92549 0.933333 0.92549
0.929412 0.933333 0.941176
0.933333 0.937255 0.945098
0.937255 0.941176 0.94902
0.945098 0.94902 0.952941
0.952941 0.956863 0.956863
0.960784 0.964706 0.964706
0.968627 0.972549 0.980392
0.952941 0.956863 0.960784
0.952941 0.956863 0.964706
0.952941 0.960784 0.956863
0.956863 0.960784 0.968627
0.960784 0.964706 0.972549
0.964706 0.968627 0.976471
0.968627 0.972549 0.976471
0.976471 0.980392 0.988235
0.980392 0.984314 0.988235
0.705882 0.709804 0.709804
0.72549 0.729412 0.737255
0.741176 0.745098 0.752941
0.756863 0.760784 0.764706
0.776471 0.780392 0.780392
0.803922 0.807843 0.815686
0.831373 0.835294 0.843137
0.870588 0.87451 0.882353
0.898039 0.901961 0.909804
0.733333 0.737255 0.745098
0.737255 0.741176 0.74902
0.752941 0.756863 0.760784
0.772549 0.776471 0.784314
0.792157 0.8 0.796078
0.815686 0.819608 0.819608
0.843137 0.847059 0.847059
0.882353 0.886275 0.890196
0.901961 0.909804 0.905882
0.764706 0.768627 0.768627
0.768627 0.776471 0.772549
0.776471 0.784314 0.780392
0.792157 0.796078 0.796078
0.811765 0.815686 0.815686
0.835294 0.843137 0.835294
0.858824 0.862745 0.862745
0.894118 0.898039 0.901961
0.913725 0.917647 0.921569
0.8 0.803922 0.803922
0.807843 0.815686 0.807843
0.815686 0.823529 0.819608
0.827451 0.831373 0.839216
0.839216 0.843137 0.85098
0.858824 0.862745 0.862745
0.882353 0.886275 0.894118
0.905882 0.909804 0.917647
0.92549 0.929412 0.929412
0.839216 0.847059 0.843137
0.847059 0.85098 0.858824
0.85098 0.854902 0.854902
0.858824 0.866667 0.858824
0.870588 0.878431 0.870588
0.890196 0.894118 0.898039
0.901961 0.905882 0.909804
0.92549 0.929412 0.933333
0.937255 0.941176 0.941176
0.878431 0.882353 0.882353
0.882353 0.886275 0.890196
0.886275 0.894118 0.890196
0.894118 0.898039 0.898039
0.905882 0.909804 0.917647
0.913725 0.921569 0.917647
0.929412 0.933333 0.941176
0.941176 0.945098 0.945098
0.94902 0.952941 0.956863
0.921569 0.92549 0.933333
0.921569 0.92549 0.92549
0.92549 0.929412 0.933333
0.929412 0.937255 0.933333
0.937255 0.941176 0.94902
0.941176 0.945098 0.945098
0.94902 0.956863 0.952941
0.956863 0.964706 0.964706
0.964706 0.968627 0.972549
0.94902 0.952941 0.960784
0.94902 0.956863 0.952941
0.952941 0.956863 0.964706
0.952941 0.956863 0.956863
0.956863 0.960784 0.968627
0.960784 0.964706 0.968627
0.964706 0.972549 0.968627
0.972549 0.976471 0.984314
0.976471 0.980392 0.988235
0.964706 0.972549 0.972549
0.964706 0.972549 0.972549
0.964706 0.968627 0.972549
0.968627 0.972549 0.980392
0.968627 0.972549 0.976471
0.972549 0.976471 0.980392
0.976471 0.980392 0.984314
0.980392 0.984314 0.988235
0.984314 0.988235 0.992157
