IMPlatforms/IMProcessingiOS/IMProcessingiOS/Luts/A25_B&W.cube
#Generated by Picture Instruments - Look Creator
TITLE "A25 B&W"
LUT_3D_SIZE 17
0 0 0
0.00784314 0.0156863 0.0117647
0.0156863 0.0235294 0.0196078
0.0235294 0.027451 0.0352941
0.0313725 0.0352941 0.0431373
0.0431373 0.0470588 0.054902
0.0627451 0.0666667 0.0745098
0.0980392 0.101961 0.101961
0.137255 0.141176 0.141176
0.180392 0.184314 0.184314
0.227451 0.231373 0.235294
0.282353 0.286275 0.294118
0.345098 0.34902 0.356863
0.415686 0.419608 0.423529
0.486275 0.490196 0.490196
0.560784 0.564706 0.572549
0.615686 0.619608 0.627451
0.0117647 0.0156863 0.0196078
0.0235294 0.027451 0.0352941
0.0352941 0.0392157 0.0470588
0.0470588 0.0509804 0.054902
0.054902 0.0588235 0.0588235
0.0666667 0.0745098 0.0666667
0.0941176 0.0980392 0.105882
0.133333 0.133333 0.133333
0.168627 0.168627 0.168627
0.203922 0.207843 0.215686
0.247059 0.254902 0.247059
0.301961 0.305882 0.309804
0.360784 0.364706 0.364706
0.427451 0.431373 0.431373
0.501961 0.505882 0.509804
0.568627 0.576471 0.568627
0.627451 0.631373 0.635294
0.027451 0.0313725 0.0313725
0.0431373 0.0509804 0.0470588
0.0509804 0.0588235 0.054902
0.0666667 0.0705882 0.0784314
0.0745098 0.0784314 0.0823529
0.0901961 0.0941176 0.101961
0.117647 0.12549 0.117647
0.14902 0.152941 0.160784
0.184314 0.188235 0.196078
0.223529 0.227451 0.223529
0.266667 0.270588 0.278431
0.317647 0.321569 0.321569
0.376471 0.384314 0.380392
0.443137 0.447059 0.45098
0.513725 0.517647 0.52549
0.580392 0.584314 0.592157
0.631373 0.639216 0.631373
0.0509804 0.054902 0.054902
0.0666667 0.0705882 0.0784314
0.0784314 0.0823529 0.0901961
0.0901961 0.0941176 0.0941176
0.101961 0.105882 0.109804
0.121569 0.12549 0.12549
0.145098 0.14902 0.14902
0.176471 0.180392 0.184314
0.211765 0.215686 0.215686
0.247059 0.25098 0.254902
0.290196 0.294118 0.301961
0.341176 0.345098 0.352941
0.4 0.403922 0.403922
0.462745 0.466667 0.47451
0.529412 0.533333 0.541176
0.592157 0.596078 0.603922
0.643137 0.647059 0.65098
0.0784314 0.0823529 0.0862745
0.0980392 0.0980392 0.0980392
0.109804 0.109804 0.109804
0.117647 0.121569 0.12549
0.133333 0.137255 0.145098
0.156863 0.160784 0.160784
0.180392 0.184314 0.188235
0.207843 0.211765 0.211765
0.239216 0.243137 0.243137
0.27451 0.278431 0.278431
0.317647 0.321569 0.32549
0.368627 0.372549 0.380392
0.423529 0.427451 0.427451
0.482353 0.490196 0.486275
0.545098 0.552941 0.54902
0.607843 0.611765 0.615686
0.65098 0.654902 0.654902
0.121569 0.12549 0.12549
0.137255 0.141176 0.141176
0.141176 0.145098 0.14902
0.156863 0.160784 0.168627
0.176471 0.180392 0.188235
0.196078 0.2 0.207843
0.219608 0.227451 0.223529
0.247059 0.25098 0.254902
0.278431 0.282353 0.282353
0.317647 0.317647 0.317647
0.356863 0.356863 0.356863
0.4 0.403922 0.403922
0.45098 0.454902 0.454902
0.509804 0.513725 0.517647
0.564706 0.568627 0.568627
0.619608 0.623529 0.623529
0.666667 0.670588 0.67451
0.172549 0.176471 0.176471
0.180392 0.184314 0.184314
0.192157 0.196078 0.196078
0.207843 0.211765 0.211765
0.223529 0.227451 0.227451
0.243137 0.247059 0.254902
0.262745 0.270588 0.266667
0.294118 0.298039 0.298039
0.32549 0.32549 0.32549
0.352941 0.356863 0.364706
0.392157 0.396078 0.403922
0.431373 0.435294 0.435294
0.482353 0.486275 0.490196
0.537255 0.541176 0.54902
0.588235 0.592157 0.596078
0.635294 0.643137 0.639216
0.678431 0.682353 0.682353
0.227451 0.231373 0.231373
0.239216 0.243137 0.247059
0.25098 0.254902 0.262745
0.258824 0.262745 0.262745
0.27451 0.278431 0.282353
0.290196 0.294118 0.294118
0.313725 0.317647 0.321569
0.337255 0.345098 0.341176
0.368627 0.372549 0.380392
0.403922 0.403922 0.403922
0.431373 0.439216 0.435294
0.47451 0.478431 0.482353
0.517647 0.521569 0.529412
0.564706 0.568627 0.576471
0.611765 0.615686 0.619608
0.654902 0.662745 0.658824
0.698039 0.701961 0.709804
0.290196 0.294118 0.298039
0.294118 0.298039 0.298039
0.305882 0.309804 0.313725
0.317647 0.321569 0.32549
0.329412 0.333333 0.341176
0.34902 0.34902 0.34902
0.368627 0.368627 0.368627
0.384314 0.392157 0.388235
0.411765 0.415686 0.423529
0.45098 0.45098 0.45098
0.47451 0.482353 0.478431
0.513725 0.517647 0.517647
0.556863 0.560784 0.564706
0.596078 0.6 0.603922
0.635294 0.639216 0.639216
0.678431 0.686275 0.682353
0.717647 0.721569 0.729412
0.356863 0.360784 0.360784
0.360784 0.364706 0.372549
0.364706 0.372549 0.368627
0.376471 0.384314 0.380392
0.388235 0.396078 0.392157
0.403922 0.407843 0.407843
0.423529 0.427451 0.431373
0.443137 0.45098 0.447059
0.466667 0.47451 0.470588
0.494118 0.501961 0.498039
0.52549 0.533333 0.529412
0.560784 0.564706 0.572549
0.596078 0.603922 0.6
0.631373 0.639216 0.635294
0.666667 0.67451 0.670588
0.709804 0.713725 0.721569
0.745098 0.74902 0.752941
0.431373 0.435294 0.435294
0.439216 0.443137 0.45098
0.443137 0.45098 0.447059
0.45098 0.458824 0.454902
0.462745 0.470588 0.466667
0.478431 0.482353 0.486275
0.494118 0.498039 0.505882
0.509804 0.517647 0.513725
0.529412 0.537255 0.533333
0.552941 0.556863 0.564706
0.576471 0.580392 0.588235
0.607843 0.611765 0.619608
0.635294 0.643137 0.639216
0.670588 0.67451 0.682353
0.705882 0.709804 0.717647
0.741176 0.745098 0.74902
0.764706 0.768627 0.768627
0.521569 0.52549 0.52549
0.52549 0.529412 0.537255
0.52549 0.533333 0.529412
0.533333 0.537255 0.537255
0.545098 0.54902 0.552941
0.552941 0.556863 0.560784
0.560784 0.564706 0.564706
0.572549 0.580392 0.576471
0.588235 0.592157 0.6
0.607843 0.611765 0.619608
0.627451 0.631373 0.635294
0.65098 0.658824 0.654902
0.682353 0.686275 0.694118
0.709804 0.713725 0.717647
0.737255 0.741176 0.741176
0.768627 0.772549 0.776471
0.788235 0.792157 0.792157
0.607843 0.611765 0.615686
0.607843 0.611765 0.619608
0.607843 0.615686 0.611765
0.611765 0.615686 0.619608
0.615686 0.619608 0.627451
0.623529 0.627451 0.635294
0.631373 0.635294 0.639216
0.635294 0.643137 0.639216
0.647059 0.65098 0.658824
0.662745 0.666667 0.670588
0.682353 0.686275 0.686275
0.701961 0.709804 0.705882
0.72549 0.729412 0.737255
0.74902 0.752941 0.760784
0.772549 0.776471 0.780392
0.796078 0.8 0.807843
0.815686 0.819608 0.823529
0.678431 0.682353 0.682353
0.678431 0.686275 0.682353
0.678431 0.686275 0.682353
0.678431 0.686275 0.682353
0.678431 0.682353 0.682353
0.682353 0.686275 0.686275
0.690196 0.694118 0.698039
0.698039 0.701961 0.705882
0.705882 0.709804 0.709804
0.717647 0.72549 0.717647
0.733333 0.737255 0.745098
0.74902 0.752941 0.760784
0.764706 0.768627 0.776471
0.784314 0.788235 0.796078
0.803922 0.807843 0.811765
0.823529 0.827451 0.827451
0.843137 0.847059 0.85098
0.745098 0.74902 0.752941
0.745098 0.74902 0.756863
0.745098 0.74902 0.756863
0.745098 0.74902 0.74902
0.74902 0.752941 0.756863
0.74902 0.752941 0.756863
0.752941 0.756863 0.764706
0.756863 0.760784 0.768627
0.760784 0.764706 0.768627
0.768627 0.772549 0.780392
0.772549 0.780392 0.772549
0.788235 0.792157 0.8
0.803922 0.807843 0.815686
0.819608 0.823529 0.827451
0.835294 0.839216 0.839216
0.854902 0.858824 0.862745
0.870588 0.87451 0.882353
0.8 0.803922 0.803922
0.8 0.807843 0.803922
0.8 0.807843 0.803922
0.8 0.803922 0.803922
0.8 0.807843 0.803922
0.803922 0.807843 0.815686
0.803922 0.811765 0.803922
0.807843 0.811765 0.815686
0.811765 0.815686 0.815686
0.819608 0.823529 0.831373
0.823529 0.827451 0.835294
0.831373 0.835294 0.843137
0.843137 0.85098 0.843137
0.854902 0.858824 0.858824
0.870588 0.87451 0.878431
0.886275 0.890196 0.898039
0.894118 0.898039 0.905882
0.843137 0.847059 0.85098
0.843137 0.847059 0.854902
0.843137 0.847059 0.854902
0.843137 0.847059 0.85098
0.843137 0.847059 0.847059
0.843137 0.85098 0.843137
0.847059 0.85098 0.858824
0.85098 0.854902 0.862745
0.854902 0.858824 0.862745
0.858824 0.862745 0.870588
0.862745 0.866667 0.87451
0.866667 0.87451 0.866667
0.87451 0.878431 0.886275
0.882353 0.890196 0.886275
0.894118 0.898039 0.898039
0.905882 0.909804 0.917647
0.913725 0.917647 0.92549
0.00784314 0.0156863 0.0235294
0.0156863 0.027451 0.0352941
0.0392157 0.0431373 0.0509804
0.0470588 0.0509804 0.0588235
0.0588235 0.0627451 0.0627451
0.0745098 0.0784314 0.0823529
0.0941176 0.0980392 0.101961
0.133333 0.137255 0.137255
0.168627 0.172549 0.172549
0.207843 0.211765 0.215686
0.254902 0.258824 0.266667
0.305882 0.309804 0.317647
0.368627 0.372549 0.376471
0.435294 0.439216 0.439216
0.505882 0.509804 0.513725
0.572549 0.576471 0.576471
0.631373 0.635294 0.639216
0.0392157 0.0431373 0.0470588
0.0509804 0.054902 0.0627451
0.0588235 0.0627451 0.0666667
0.0705882 0.0745098 0.0745098
0.0823529 0.0862745 0.0901961
0.0980392 0.101961 0.101961
0.12549 0.129412 0.137255
0.164706 0.164706 0.164706
0.192157 0.196078 0.196078
0.231373 0.235294 0.239216
0.27451 0.278431 0.278431
0.32549 0.329412 0.333333
0.384314 0.388235 0.388235
0.45098 0.454902 0.458824
0.517647 0.521569 0.529412
0.584314 0.588235 0.596078
0.639216 0.643137 0.647059
0.054902 0.0588235 0.0588235
0.0705882 0.0745098 0.0784314
0.0823529 0.0862745 0.0862745
0.0901961 0.0941176 0.0941176
0.105882 0.109804 0.109804
0.12549 0.129412 0.129412
0.14902 0.152941 0.160784
0.184314 0.184314 0.184314
0.215686 0.219608 0.219608
0.247059 0.25098 0.25098
0.290196 0.294118 0.294118
0.341176 0.345098 0.345098
0.4 0.407843 0.403922
0.462745 0.466667 0.466667
0.529412 0.533333 0.541176
0.592157 0.596078 0.603922
0.643137 0.647059 0.647059
0.0784314 0.0823529 0.0862745
0.0980392 0.0980392 0.0980392
0.105882 0.109804 0.109804
0.121569 0.12549 0.12549
0.133333 0.137255 0.141176
0.152941 0.156863 0.156863
0.172549 0.180392 0.188235
0.211765 0.211765 0.207843
0.239216 0.243137 0.25098
0.27451 0.278431 0.27451
0.313725 0.317647 0.32549
0.364706 0.368627 0.372549
0.419608 0.427451 0.423529
0.482353 0.486275 0.494118
0.541176 0.545098 0.545098
0.603922 0.607843 0.611765
0.654902 0.658824 0.666667
0.105882 0.109804 0.109804
0.129412 0.129412 0.129412
0.133333 0.137255 0.137255
0.14902 0.152941 0.156863
0.164706 0.168627 0.176471
0.184314 0.188235 0.192157
0.215686 0.215686 0.211765
0.235294 0.243137 0.25098
0.266667 0.27451 0.266667
0.301961 0.305882 0.313725
0.341176 0.345098 0.34902
0.392157 0.396078 0.396078
0.443137 0.45098 0.447059
0.501961 0.505882 0.513725
0.560784 0.564706 0.568627
0.619608 0.623529 0.631373
0.666667 0.670588 0.678431
0.152941 0.156863 0.160784
0.168627 0.172549 0.180392
0.184314 0.184314 0.184314
0.196078 0.196078 0.196078
0.207843 0.211765 0.211765
0.223529 0.227451 0.227451
0.247059 0.254902 0.25098
0.27451 0.278431 0.286275
0.301961 0.309804 0.305882
0.333333 0.341176 0.337255
0.376471 0.380392 0.388235
0.423529 0.427451 0.431373
0.47451 0.478431 0.486275
0.52549 0.533333 0.52549
0.580392 0.584314 0.592157
0.635294 0.639216 0.643137
0.678431 0.682353 0.690196
0.203922 0.207843 0.207843
0.215686 0.219608 0.223529
0.227451 0.231373 0.239216
0.235294 0.239216 0.247059
0.25098 0.254902 0.262745
0.270588 0.27451 0.282353
0.290196 0.298039 0.294118
0.317647 0.321569 0.329412
0.345098 0.34902 0.356863
0.376471 0.380392 0.388235
0.415686 0.419608 0.423529
0.454902 0.458824 0.458824
0.501961 0.509804 0.501961
0.552941 0.556863 0.564706
0.603922 0.607843 0.611765
0.65098 0.654902 0.654902
0.690196 0.698039 0.690196
0.254902 0.258824 0.266667
0.262745 0.270588 0.262745
0.27451 0.278431 0.282353
0.286275 0.290196 0.298039
0.305882 0.305882 0.305882
0.32549 0.32549 0.32549
0.341176 0.345098 0.34902
0.360784 0.364706 0.364706
0.392157 0.396078 0.396078
0.423529 0.427451 0.431373
0.454902 0.458824 0.466667
0.494118 0.498039 0.501961
0.533333 0.537255 0.537255
0.580392 0.584314 0.588235
0.623529 0.631373 0.623529
0.670588 0.67451 0.682353
0.705882 0.713725 0.709804
0.313725 0.321569 0.313725
0.321569 0.32549 0.333333
0.329412 0.333333 0.333333
0.345098 0.34902 0.352941
0.356863 0.360784 0.364706
0.368627 0.372549 0.372549
0.388235 0.392157 0.392157
0.411765 0.419608 0.415686
0.435294 0.443137 0.439216
0.466667 0.470588 0.470588
0.498039 0.501961 0.505882
0.533333 0.537255 0.537255
0.572549 0.576471 0.580392
0.611765 0.615686 0.623529
0.65098 0.654902 0.662745
0.690196 0.698039 0.690196
0.72549 0.733333 0.729412
0.380392 0.384314 0.388235
0.388235 0.392157 0.4
0.392157 0.396078 0.4
0.4 0.403922 0.403922
0.415686 0.419608 0.427451
0.427451 0.435294 0.427451
0.443137 0.447059 0.447059
0.466667 0.470588 0.47451
0.490196 0.494118 0.498039
0.513725 0.517647 0.517647
0.545098 0.552941 0.54902
0.576471 0.584314 0.580392
0.611765 0.615686 0.623529
0.647059 0.65098 0.658824
0.678431 0.686275 0.682353
0.717647 0.721569 0.729412
0.74902 0.756863 0.74902
0.45098 0.454902 0.454902
0.458824 0.462745 0.466667
0.462745 0.466667 0.466667
0.470588 0.478431 0.47451
0.482353 0.490196 0.482353
0.498039 0.501961 0.509804
0.513725 0.517647 0.521569
0.529412 0.533333 0.541176
0.54902 0.552941 0.560784
0.568627 0.572549 0.576471
0.592157 0.596078 0.603922
0.623529 0.627451 0.635294
0.65098 0.654902 0.662745
0.682353 0.686275 0.694118
0.713725 0.721569 0.717647
0.74902 0.752941 0.760784
0.772549 0.776471 0.784314
0.533333 0.541176 0.537255
0.537255 0.545098 0.541176
0.541176 0.545098 0.545098
0.54902 0.552941 0.556863
0.556863 0.560784 0.568627
0.568627 0.572549 0.580392
0.576471 0.580392 0.580392
0.592157 0.596078 0.6
0.603922 0.611765 0.607843
0.619608 0.627451 0.623529
0.639216 0.643137 0.643137
0.666667 0.670588 0.67451
0.690196 0.694118 0.694118
0.717647 0.72549 0.721569
0.74902 0.752941 0.760784
0.776471 0.780392 0.788235
0.796078 0.8 0.803922
0.611765 0.619608 0.615686
0.615686 0.623529 0.619608
0.619608 0.623529 0.627451
0.619608 0.623529 0.631373
0.623529 0.631373 0.627451
0.631373 0.639216 0.635294
0.639216 0.647059 0.643137
0.647059 0.65098 0.65098
0.658824 0.662745 0.670588
0.67451 0.678431 0.686275
0.690196 0.698039 0.694118
0.709804 0.713725 0.713725
0.733333 0.737255 0.741176
0.752941 0.756863 0.756863
0.776471 0.784314 0.780392
0.8 0.807843 0.803922
0.819608 0.823529 0.823529
0.686275 0.690196 0.698039
0.686275 0.690196 0.698039
0.686275 0.690196 0.698039
0.686275 0.690196 0.694118
0.686275 0.690196 0.694118
0.690196 0.694118 0.701961
0.698039 0.701961 0.709804
0.705882 0.709804 0.717647
0.713725 0.721569 0.717647
0.72549 0.733333 0.729412
0.741176 0.745098 0.74902
0.756863 0.760784 0.768627
0.768627 0.776471 0.768627
0.788235 0.792157 0.8
0.807843 0.815686 0.807843
0.831373 0.835294 0.843137
0.847059 0.85098 0.858824
0.74902 0.752941 0.760784
0.74902 0.752941 0.760784
0.74902 0.752941 0.756863
0.74902 0.752941 0.752941
0.74902 0.752941 0.752941
0.752941 0.756863 0.760784
0.756863 0.760784 0.768627
0.760784 0.764706 0.772549
0.764706 0.768627 0.776471
0.772549 0.776471 0.784314
0.780392 0.784314 0.784314
0.796078 0.8 0.803922
0.811765 0.815686 0.823529
0.823529 0.831373 0.823529
0.843137 0.847059 0.854902
0.858824 0.866667 0.858824
0.870588 0.878431 0.87451
0.803922 0.807843 0.815686
0.803922 0.807843 0.815686
0.803922 0.807843 0.815686
0.803922 0.807843 0.815686
0.803922 0.811765 0.807843
0.803922 0.811765 0.807843
0.807843 0.811765 0.819608
0.811765 0.815686 0.819608
0.815686 0.819608 0.823529
0.819608 0.823529 0.823529
0.827451 0.831373 0.839216
0.835294 0.839216 0.847059
0.847059 0.85098 0.858824
0.858824 0.866667 0.858824
0.87451 0.878431 0.882353
0.886275 0.890196 0.890196
0.898039 0.901961 0.909804
0.843137 0.85098 0.847059
0.843137 0.85098 0.847059
0.847059 0.85098 0.858824
0.847059 0.85098 0.858824
0.847059 0.85098 0.858824
0.847059 0.85098 0.858824
0.85098 0.854902 0.858824
0.85098 0.854902 0.854902
0.854902 0.858824 0.866667
0.858824 0.862745 0.866667
0.862745 0.866667 0.87451
0.870588 0.87451 0.882353
0.87451 0.882353 0.87451
0.886275 0.890196 0.898039
0.898039 0.901961 0.909804
0.909804 0.913725 0.917647
0.913725 0.921569 0.917647
0.0235294 0.027451 0.0352941
0.0392157 0.0431373 0.0509804
0.054902 0.0588235 0.0666667
0.0627451 0.0666667 0.0745098
0.0784314 0.0823529 0.0901961
0.0941176 0.0980392 0.0980392
0.117647 0.121569 0.12549
0.160784 0.160784 0.160784
0.196078 0.196078 0.196078
0.231373 0.235294 0.235294
0.27451 0.278431 0.278431
0.32549 0.333333 0.329412
0.384314 0.392157 0.388235
0.45098 0.454902 0.454902
0.521569 0.52549 0.529412
0.584314 0.588235 0.588235
0.639216 0.643137 0.647059
0.054902 0.0588235 0.0666667
0.0666667 0.0705882 0.0784314
0.0784314 0.0823529 0.0901961
0.0980392 0.0980392 0.0980392
0.105882 0.109804 0.113725
0.121569 0.12549 0.12549
0.14902 0.152941 0.156863
0.180392 0.184314 0.184314
0.215686 0.219608 0.227451
0.25098 0.258824 0.254902
0.294118 0.301961 0.298039
0.345098 0.34902 0.356863
0.4 0.407843 0.403922
0.466667 0.470588 0.478431
0.533333 0.537255 0.545098
0.596078 0.6 0.607843
0.647059 0.65098 0.658824
0.0784314 0.0823529 0.0862745
0.0901961 0.0980392 0.0941176
0.101961 0.109804 0.105882
0.117647 0.117647 0.117647
0.12549 0.129412 0.129412
0.14902 0.152941 0.152941
0.172549 0.176471 0.176471
0.203922 0.207843 0.207843
0.235294 0.239216 0.247059
0.270588 0.27451 0.282353
0.313725 0.317647 0.32549
0.360784 0.364706 0.372549
0.415686 0.423529 0.419608
0.482353 0.486275 0.494118
0.545098 0.54902 0.556863
0.603922 0.607843 0.615686
0.654902 0.658824 0.666667
0.101961 0.105882 0.113725
0.117647 0.121569 0.121569
0.129412 0.133333 0.137255
0.141176 0.145098 0.145098
0.156863 0.160784 0.168627
0.176471 0.180392 0.188235
0.2 0.203922 0.207843
0.227451 0.231373 0.231373
0.258824 0.262745 0.266667
0.294118 0.298039 0.301961
0.333333 0.337255 0.337255
0.380392 0.388235 0.384314
0.439216 0.443137 0.45098
0.498039 0.505882 0.501961
0.556863 0.560784 0.560784
0.615686 0.619608 0.627451
0.662745 0.666667 0.67451
0.129412 0.133333 0.141176
0.145098 0.14902 0.152941
0.156863 0.160784 0.168627
0.172549 0.176471 0.176471
0.188235 0.192157 0.2
0.207843 0.211765 0.215686
0.231373 0.235294 0.235294
0.258824 0.262745 0.266667
0.290196 0.294118 0.301961
0.321569 0.32549 0.32549
0.360784 0.368627 0.364706
0.407843 0.415686 0.411765
0.462745 0.466667 0.47451
0.517647 0.521569 0.521569
0.576471 0.580392 0.584314
0.627451 0.635294 0.631373
0.670588 0.678431 0.67451
0.176471 0.180392 0.176471
0.188235 0.192157 0.2
0.2 0.203922 0.207843
0.211765 0.215686 0.223529
0.227451 0.235294 0.227451
0.247059 0.25098 0.254902
0.270588 0.27451 0.282353
0.298039 0.301961 0.301961
0.32549 0.329412 0.333333
0.356863 0.364706 0.356863
0.396078 0.4 0.407843
0.439216 0.443137 0.443137
0.490196 0.494118 0.498039
0.541176 0.545098 0.545098
0.592157 0.596078 0.6
0.643137 0.647059 0.647059
0.686275 0.690196 0.694118
0.223529 0.227451 0.235294
0.239216 0.243137 0.247059
0.25098 0.254902 0.254902
0.262745 0.266667 0.262745
0.27451 0.278431 0.286275
0.294118 0.298039 0.298039
0.313725 0.317647 0.321569
0.337255 0.341176 0.341176
0.364706 0.368627 0.368627
0.396078 0.4 0.407843
0.431373 0.439216 0.431373
0.47451 0.478431 0.482353
0.521569 0.52549 0.533333
0.568627 0.572549 0.576471
0.615686 0.619608 0.627451
0.662745 0.666667 0.670588
0.701961 0.705882 0.713725
0.278431 0.282353 0.290196
0.290196 0.294118 0.301961
0.298039 0.305882 0.301961
0.313725 0.317647 0.32549
0.321569 0.329412 0.321569
0.341176 0.345098 0.352941
0.360784 0.368627 0.364706
0.384314 0.388235 0.396078
0.411765 0.419608 0.415686
0.443137 0.447059 0.454902
0.47451 0.478431 0.486275
0.509804 0.513725 0.513725
0.552941 0.556863 0.560784
0.592157 0.596078 0.596078
0.635294 0.643137 0.639216
0.678431 0.686275 0.678431
0.717647 0.721569 0.729412
0.333333 0.337255 0.345098
0.341176 0.345098 0.352941
0.34902 0.356863 0.352941
0.364706 0.368627 0.364706
0.376471 0.380392 0.388235
0.392157 0.396078 0.403922
0.411765 0.419608 0.415686
0.435294 0.439216 0.447059
0.454902 0.462745 0.458824
0.486275 0.494118 0.490196
0.513725 0.521569 0.517647
0.54902 0.556863 0.552941
0.584314 0.588235 0.588235
0.623529 0.627451 0.631373
0.658824 0.662745 0.662745
0.701961 0.705882 0.713725
0.733333 0.741176 0.733333
0.4 0.403922 0.411765
0.407843 0.411765 0.411765
0.411765 0.415686 0.419608
0.423529 0.427451 0.435294
0.439216 0.443137 0.45098
0.45098 0.458824 0.454902
0.466667 0.470588 0.478431
0.486275 0.490196 0.498039
0.505882 0.513725 0.509804
0.533333 0.537255 0.545098
0.560784 0.568627 0.564706
0.592157 0.596078 0.6
0.623529 0.627451 0.635294
0.654902 0.658824 0.658824
0.690196 0.694118 0.698039
0.72549 0.729412 0.729412
0.756863 0.760784 0.764706
0.470588 0.478431 0.470588
0.482353 0.486275 0.490196
0.486275 0.490196 0.498039
0.490196 0.498039 0.494118
0.501961 0.509804 0.505882
0.513725 0.521569 0.517647
0.529412 0.533333 0.541176
0.545098 0.54902 0.556863
0.560784 0.568627 0.564706
0.584314 0.588235 0.596078
0.603922 0.611765 0.607843
0.631373 0.635294 0.635294
0.662745 0.666667 0.670588
0.690196 0.698039 0.694118
0.721569 0.72549 0.72549
0.752941 0.760784 0.756863
0.776471 0.780392 0.780392
0.545098 0.54902 0.556863
0.54902 0.556863 0.552941
0.552941 0.556863 0.556863
0.560784 0.564706 0.568627
0.568627 0.572549 0.580392
0.576471 0.584314 0.580392
0.588235 0.592157 0.592157
0.603922 0.607843 0.611765
0.615686 0.619608 0.619608
0.631373 0.635294 0.635294
0.65098 0.658824 0.654902
0.67451 0.678431 0.682353
0.701961 0.705882 0.713725
0.72549 0.733333 0.729412
0.752941 0.756863 0.756863
0.780392 0.784314 0.792157
0.8 0.807843 0.803922
0.619608 0.623529 0.627451
0.623529 0.627451 0.627451
0.627451 0.631373 0.635294
0.627451 0.631373 0.631373
0.635294 0.639216 0.643137
0.639216 0.643137 0.643137
0.65098 0.654902 0.658824
0.658824 0.662745 0.670588
0.666667 0.670588 0.67451
0.682353 0.686275 0.690196
0.698039 0.701961 0.701961
0.717647 0.721569 0.721569
0.741176 0.745098 0.74902
0.760784 0.764706 0.764706
0.784314 0.788235 0.792157
0.807843 0.811765 0.819608
0.823529 0.831373 0.827451
0.690196 0.694118 0.701961
0.690196 0.694118 0.694118
0.694118 0.698039 0.701961
0.694118 0.698039 0.705882
0.694118 0.698039 0.705882
0.698039 0.701961 0.709804
0.705882 0.709804 0.713725
0.713725 0.717647 0.72549
0.72549 0.729412 0.737255
0.733333 0.741176 0.737255
0.74902 0.752941 0.760784
0.760784 0.768627 0.764706
0.776471 0.784314 0.780392
0.796078 0.8 0.807843
0.815686 0.819608 0.827451
0.835294 0.839216 0.847059
0.85098 0.854902 0.862745
0.74902 0.756863 0.752941
0.752941 0.756863 0.760784
0.752941 0.756863 0.764706
0.752941 0.760784 0.756863
0.752941 0.760784 0.756863
0.756863 0.760784 0.764706
0.756863 0.760784 0.760784
0.764706 0.768627 0.776471
0.768627 0.772549 0.780392
0.776471 0.784314 0.780392
0.788235 0.792157 0.8
0.8 0.807843 0.803922
0.815686 0.823529 0.819608
0.831373 0.835294 0.843137
0.847059 0.85098 0.858824
0.862745 0.870588 0.866667
0.87451 0.882353 0.878431
0.803922 0.811765 0.803922
0.803922 0.807843 0.807843
0.807843 0.811765 0.815686
0.807843 0.811765 0.819608
0.807843 0.811765 0.819608
0.807843 0.811765 0.811765
0.811765 0.815686 0.819608
0.811765 0.819608 0.815686
0.815686 0.823529 0.819608
0.823529 0.827451 0.835294
0.831373 0.835294 0.843137
0.839216 0.843137 0.85098
0.85098 0.854902 0.862745
0.862745 0.866667 0.866667
0.878431 0.882353 0.886275
0.890196 0.898039 0.894118
0.901961 0.905882 0.913725
0.847059 0.85098 0.858824
0.847059 0.85098 0.854902
0.847059 0.85098 0.858824
0.847059 0.854902 0.85098
0.847059 0.854902 0.85098
0.85098 0.854902 0.858824
0.85098 0.854902 0.862745
0.854902 0.858824 0.866667
0.858824 0.862745 0.870588
0.862745 0.866667 0.87451
0.866667 0.870588 0.878431
0.870588 0.87451 0.882353
0.878431 0.882353 0.890196
0.890196 0.894118 0.898039
0.901961 0.905882 0.913725
0.909804 0.917647 0.913725
0.917647 0.921569 0.929412
0.0392157 0.0431373 0.0509804
0.0588235 0.0627451 0.0705882
0.0705882 0.0745098 0.0745098
0.0823529 0.0862745 0.0901961
0.0980392 0.101961 0.101961
0.117647 0.121569 0.12549
0.145098 0.14902 0.152941
0.180392 0.184314 0.184314
0.215686 0.223529 0.219608
0.254902 0.262745 0.258824
0.298039 0.301961 0.305882
0.34902 0.352941 0.352941
0.407843 0.415686 0.411765
0.470588 0.478431 0.47451
0.537255 0.541176 0.545098
0.6 0.603922 0.603922
0.65098 0.654902 0.654902
0.0745098 0.0784314 0.0862745
0.0862745 0.0901961 0.0941176
0.105882 0.105882 0.105882
0.121569 0.121569 0.121569
0.129412 0.137255 0.133333
0.14902 0.152941 0.152941
0.176471 0.180392 0.180392
0.207843 0.211765 0.215686
0.239216 0.247059 0.243137
0.27451 0.282353 0.278431
0.317647 0.32549 0.317647
0.368627 0.372549 0.380392
